poi/svg/1617.svg

<?xml version="1.0" encoding="UTF-8" standalone="no"?>
<svg
   xmlns:dc="http://purl.org/dc/elements/1.1/"
   xmlns:cc="http://creativecommons.org/ns#"
   xmlns:rdf="http://www.w3.org/1999/02/22-rdf-syntax-ns#"
   xmlns:svg="http://www.w3.org/2000/svg"
   xmlns="http://www.w3.org/2000/svg"
   xmlns:sodipodi="http://sodipodi.sourceforge.net/DTD/sodipodi-0.dtd"
   xmlns:inkscape="http://www.inkscape.org/namespaces/inkscape"
   inkscape:version="1.0 (4035a4fb49, 2020-05-01)"
   sodipodi:docname="1617.svg"
   id="svg20"
   version="1.2"
   viewBox="0 0 42.519639 42.519639"
   height="14.999999mm"
   width="14.999999mm">
  <metadata
     id="metadata24">
    <rdf:RDF>
      <cc:Work
         rdf:about="">
        <dc:format>image/svg+xml</dc:format>
        <dc:type
           rdf:resource="http://purl.org/dc/dcmitype/StillImage" />
        <dc:title>Qt SVG Document</dc:title>
      </cc:Work>
    </rdf:RDF>
  </metadata>
  <sodipodi:namedview
     inkscape:current-layer="svg20"
     inkscape:window-maximized="0"
     inkscape:window-y="0"
     inkscape:window-x="0"
     inkscape:cy="28.346482"
     inkscape:cx="28.346482"
     inkscape:zoom="5.8410537"
     showgrid="false"
     id="namedview22"
     inkscape:window-height="480"
     inkscape:window-width="1034"
     inkscape:pageshadow="2"
     inkscape:pageopacity="0"
     guidetolerance="10"
     gridtolerance="10"
     objecttolerance="10"
     borderopacity="1"
     bordercolor="#666666"
     pagecolor="#ffffff" />
  <title
     id="title2">Qt SVG Document</title>
  <desc
     id="desc4">Generated with Qt</desc>
  <defs
     id="defs6" />
  <g
     transform="translate(5.25984,5.25984)"
     id="g18"
     stroke-linejoin="bevel"
     stroke-linecap="square"
     fill-rule="evenodd"
     stroke-width="1"
     stroke="#000000"
     fill="none">
    <g
       id="g10"
       font-style="normal"
       font-weight="400"
       font-size="7.8px"
       font-family="'MS Shell Dlg 2'"
       stroke="none"
       fill-opacity="1"
       fill="#53a54f">
      <path
         id="path8"
         d="M 37.2598,16 C 37.2598,27.7415 27.7415,37.2598 16,37.2598 4.25851,37.2598 -5.25984,27.7415 -5.25984,16 -5.25984,4.25851 4.25851,-5.25984 16,-5.25984 27.7415,-5.25984 37.2598,4.25851 37.2598,16"
         fill-rule="evenodd"
         vector-effect="non-scaling-stroke" />
    </g>
    <g
       id="g14"
       font-style="normal"
       font-weight="400"
       font-size="7.8px"
       font-family="'MS Shell Dlg 2'"
       transform="translate(16,11.4646)"
       stroke="none"
       fill-opacity="0.94902"
       fill="#ffffff">
      <path
         id="path12"
         d="M 0.516113,7.07031 1.54492,8.18311 V 11.5005 H -0.554688 V 8.18311 L 0.516113,7.07031 M 13.3867,3.62695 10.1113,4.57178 C 10.4333,4.26383 10.7132,3.99438 10.9512,3.76343 11.1891,3.53247 11.3361,3.375 11.3921,3.29102 11.5741,3.02507 11.665,2.79411 11.665,2.59814 l 1.3648,-0.33593 0.3569,1.36474 m -24.5654,5.45899 c 0.084,0.05599 0.1855,0.08398 0.3044,0.08398 0.119,0 0.2485,0.035 0.3885,0.10498 0.0559,0 0.2414,0.035 0.55636,0.10498 0.31494,0.06999 0.67537,0.14698 1.0813,0.23096 l -3.69536,0.94486 -0.4409,-1.38578 h 0.084 L -11.5986,8.75 c 0.1679,0.16797 0.3079,0.27995 0.4199,0.33594 M 6.12207,0.0576172 C 5.71615,0.141602 5.34871,0.0786133 5.01978,-0.131348 4.69084,-0.341309 4.48438,-0.649251 4.40039,-1.05518 4.31641,-1.40511 4.3654,-1.74455 4.54736,-2.07349 4.72933,-2.40243 5.02327,-2.63688 5.4292,-2.77686 c 0.39193,-0.08398 0.75586,-0.01749 1.0918,0.19947 0.33593,0.21696 0.54589,0.49341 0.62988,0.82934 0.08398,0.40593 0.03149,0.773359 -0.15747,1.102298 C 6.80444,-0.316813 6.514,-0.0823568 6.12207,0.0576172 M 11.2241,2.68213 C 11.1681,2.73812 11.0177,2.88159 10.7727,3.11255 10.5278,3.34351 10.2793,3.57096 10.0273,3.79492 9.7054,4.08887 9.36247,4.41081 8.99854,4.76074 L 8.22168,7.93115 C 8.1377,8.42106 7.83675,8.66602 7.31885,8.66602 7.20687,8.66602 7.12288,8.63802 7.06689,8.58203 6.80094,8.52604 6.60498,8.38257 6.479,8.15161 6.35303,7.92065 6.31803,7.6792 6.37402,7.42725 L 7.23486,4.06787 C 7.29085,3.98389 7.32585,3.9034 7.33984,3.82642 7.35384,3.74943 7.40283,3.68294 7.48682,3.62695 L 8.6416,2.43018 7.61279,1.7373 C 7.47282,2.42318 6.94092,2.91309 6.01709,3.20703 L 4.65234,3.54297 4.9043,4.40381 6.70996,3.8999 C 6.65397,3.95589 6.62598,4.01188 6.62598,4.06787 c 0,0.05599 -0.028,0.11198 -0.08399,0.16797 L 6.20605,5.5166 -5.27881,8.66602 -6.58057,7.42725 -4.94287,6.98633 -5.27881,5.95752 c -0.11198,0.02799 -0.26945,0.06299 -0.47241,0.10498 -0.20296,0.04199 -0.50741,0.11898 -0.91333,0.23096 -0.13997,0.05599 -0.27295,0.08398 -0.39893,0.08398 -0.12597,0 -0.23795,0 -0.33593,0 -0.60189,0 -1.05681,-0.19596 -1.36475,-0.58789 l -0.5249,1.11279 1.63769,0.52491 c 0.11198,0 0.23096,0.05599 0.35694,0.16796 l 2.51953,2.54049 c 0.18196,0.168 0.27295,0.3815 0.27295,0.6404 0,0.259 -0.09099,0.4724 -0.27295,0.6404 -0.13998,0.224 -0.36393,0.3359 -0.67188,0.3359 -0.08398,0 -0.18546,-0.021 -0.30444,-0.0629 -0.11898,-0.042 -0.22046,-0.133 -0.30444,-0.273 L -8.42822,9.16992 C -8.84814,9.08594 -9.23307,8.98796 -9.58301,8.87598 -9.89095,8.81999 -10.1674,8.757 -10.4124,8.68701 c -0.2449,-0.06999 -0.3814,-0.10498 -0.4094,-0.10498 -0.2379,0 -0.4129,-0.04199 -0.5249,-0.12598 -0.084,-0.05598 -0.1609,-0.11547 -0.2309,-0.17846 -0.07,-0.06299 -0.133,-0.12248 -0.189,-0.17847 l -1.5537,0.48291 1.6377,-1.93164 1.1128,-2.33057 c 0.3779,-0.62988 0.89581,-0.80485 1.55369,-0.5249 0.02799,0.04199 0.10498,0.11898 0.23095,0.23096 0.12598,0.11198 0.25546,0.23096 0.38843,0.35693 0.13298,0.12598 0.25545,0.24846 0.36743,0.36743 0.11198,0.11898 0.18197,0.17847 0.20996,0.17847 0,0.05599 0.04899,0.10498 0.14698,0.14697 0.09798,0.042 0.30794,0.021 0.62988,-0.06298 l 1.67969,-0.44092 c 0.16797,-0.05599 0.32544,-0.0385 0.47241,0.05249 0.14697,0.09098 0.24845,0.22046 0.30444,0.38843 0.05599,0.25195 -0.02099,0.48291 -0.23095,0.69287 0.02799,0.13997 0.07348,0.29394 0.13647,0.46191 0.06299,0.16797 0.12248,0.38493 0.17847,0.65088 L 4.40039,4.48779 4.16943,3.62695 C 3.88949,3.59896 3.70752,3.45898 3.62354,3.20703 3.56755,3.03906 3.59554,2.88159 3.70752,2.73462 3.8195,2.58765 3.95947,2.48617 4.12744,2.43018 L 5.68115,1.98926 C 6.00309,1.90527 6.19906,1.80729 6.26904,1.69531 6.33903,1.58333 6.37402,1.48535 6.37402,1.40137 6.40202,1.13542 6.44401,0.890462 6.5,0.666504 6.55599,0.47054 6.60498,0.292074 6.64697,0.131104 6.68896,-0.0298665 6.73796,-0.138346 6.79395,-0.194336 6.97591,-0.446289 7.22437,-0.610758 7.53931,-0.687744 7.85425,-0.76473 8.1377,-0.71224 8.38965,-0.530273 L 10.8882,1.08643 c 0.2519,0.20996 0.4094,0.46541 0.4724,0.76635 0.063,0.30095 0.0175,0.5774 -0.1365,0.82935 M -8.34424,3.62695 C -8.73617,3.71094 -9.0966,3.66195 -9.42554,3.47998 -9.75448,3.29801 -9.99593,3.03206 -10.1499,2.68213 -10.2339,2.2902 -10.1814,1.91927 -9.99243,1.56934 -9.80347,1.2194 -9.54102,0.974447 -9.20508,0.834473 c 0.40593,-0.139974 0.77336,-0.10848 1.1023,0.094482 0.32894,0.202965 0.56339,0.500405 0.70337,0.892335 0.15397,0.40592 0.13647,0.77336 -0.05249,1.10229 -0.18897,0.32894 -0.48641,0.5634 -0.89234,0.70337"
         fill-rule="evenodd"
         vector-effect="none" />
    </g>
    <g
       id="g16"
       font-style="normal"
       font-weight="400"
       font-size="7.8px"
       font-family="'MS Shell Dlg 2'"
       stroke="none"
       fill-opacity="1"
       fill="#53a54f" />
  </g>
</svg>

<?xml version="1.0" encoding="UTF-8" standalone="no"?>
<svg width="11.2889mm" height="11.2889mm"
 viewBox="0 0 32 32"
 xmlns="http://www.w3.org/2000/svg" xmlns:xlink="http://www.w3.org/1999/xlink"  version="1.2" baseProfile="tiny">
<title>Qt SVG Document</title>
<desc>Generated with Qt</desc>
<defs>
</defs>
<g fill="none" stroke="black" stroke-width="1" fill-rule="evenodd" stroke-linecap="square" stroke-linejoin="bevel" >

<g fill="#53a54f" fill-opacity="1" stroke="none" transform="matrix(1,0,0,1,0,0)"
font-family="MS Shell Dlg 2" font-size="7.8" font-weight="400" font-style="normal" 
>
<path vector-effect="non-scaling-stroke" fill-rule="evenodd" d="M37.2598,16 C37.2598,27.7415 27.7415,37.2598 16,37.2598 C4.25851,37.2598 -5.25984,27.7415 -5.25984,16 C-5.25984,4.25851 4.25851,-5.25984 16,-5.25984 C27.7415,-5.25984 37.2598,4.25851 37.2598,16 "/>
</g>

<g fill="#ffffff" fill-opacity="0.94902" stroke="none" transform="matrix(1,0,0,1,16,11.4646)"
font-family="MS Shell Dlg 2" font-size="7.8" font-weight="400" font-style="normal" 
>
<path vector-effect="none" fill-rule="evenodd" d="M0.516113,7.07031 L1.54492,8.18311 L1.54492,11.5005 L-0.554688,11.5005 L-0.554688,8.18311 L0.516113,7.07031 M13.3867,3.62695 L10.1113,4.57178 C10.4333,4.26383 10.7132,3.99438 10.9512,3.76343 C11.1891,3.53247 11.3361,3.375 11.3921,3.29102 C11.5741,3.02507 11.665,2.79411 11.665,2.59814 L13.0298,2.26221 L13.3867,3.62695 M-11.1787,9.08594 C-11.0947,9.14193 -10.9932,9.16992 -10.8743,9.16992 C-10.7553,9.16992 -10.6258,9.20492 -10.4858,9.2749 C-10.4299,9.2749 -10.2444,9.3099 -9.92944,9.37988 C-9.6145,9.44987 -9.25407,9.52686 -8.84814,9.61084 L-12.5435,10.5557 L-12.9844,9.16992 L-12.9004,9.16992 L-11.5986,8.75 C-11.4307,8.91797 -11.2907,9.02995 -11.1787,9.08594 M6.12207,0.0576172 C5.71615,0.141602 5.34871,0.0786133 5.01978,-0.131348 C4.69084,-0.341309 4.48438,-0.649251 4.40039,-1.05518 C4.31641,-1.40511 4.3654,-1.74455 4.54736,-2.07349 C4.72933,-2.40243 5.02327,-2.63688 5.4292,-2.77686 C5.82113,-2.86084 6.18506,-2.79435 6.521,-2.57739 C6.85693,-2.36043 7.06689,-2.08398 7.15088,-1.74805 C7.23486,-1.34212 7.18237,-0.974691 6.99341,-0.645752 C6.80444,-0.316813 6.514,-0.0823568 6.12207,0.0576172 M11.2241,2.68213 C11.1681,2.73812 11.0177,2.88159 10.7727,3.11255 C10.5278,3.34351 10.2793,3.57096 10.0273,3.79492 C9.7054,4.08887 9.36247,4.41081 8.99854,4.76074 L8.22168,7.93115 C8.1377,8.42106 7.83675,8.66602 7.31885,8.66602 C7.20687,8.66602 7.12288,8.63802 7.06689,8.58203 C6.80094,8.52604 6.60498,8.38257 6.479,8.15161 C6.35303,7.92065 6.31803,7.6792 6.37402,7.42725 L7.23486,4.06787 C7.29085,3.98389 7.32585,3.9034 7.33984,3.82642 C7.35384,3.74943 7.40283,3.68294 7.48682,3.62695 L8.6416,2.43018 L7.61279,1.7373 C7.47282,2.42318 6.94092,2.91309 6.01709,3.20703 L4.65234,3.54297 L4.9043,4.40381 L6.70996,3.8999 C6.65397,3.95589 6.62598,4.01188 6.62598,4.06787 C6.62598,4.12386 6.59798,4.17985 6.54199,4.23584 L6.20605,5.5166 L-5.27881,8.66602 L-6.58057,7.42725 L-4.94287,6.98633 L-5.27881,5.95752 C-5.39079,5.98551 -5.54826,6.02051 -5.75122,6.0625 C-5.95418,6.10449 -6.25863,6.18148 -6.66455,6.29346 C-6.80452,6.34945 -6.9375,6.37744 -7.06348,6.37744 C-7.18945,6.37744 -7.30143,6.37744 -7.39941,6.37744 C-8.0013,6.37744 -8.45622,6.18148 -8.76416,5.78955 L-9.28906,6.90234 L-7.65137,7.42725 C-7.53939,7.42725 -7.42041,7.48324 -7.29443,7.59521 L-4.7749,10.1357 C-4.59294,10.3037 -4.50195,10.5172 -4.50195,10.7761 C-4.50195,11.0351 -4.59294,11.2485 -4.7749,11.4165 C-4.91488,11.6405 -5.13883,11.7524 -5.44678,11.7524 C-5.53076,11.7524 -5.63224,11.7314 -5.75122,11.6895 C-5.8702,11.6475 -5.97168,11.5565 -6.05566,11.4165 L-8.42822,9.16992 C-8.84814,9.08594 -9.23307,8.98796 -9.58301,8.87598 C-9.89095,8.81999 -10.1674,8.757 -10.4124,8.68701 C-10.6573,8.61702 -10.7938,8.58203 -10.8218,8.58203 C-11.0597,8.58203 -11.2347,8.54004 -11.3467,8.45605 C-11.4307,8.40007 -11.5076,8.34058 -11.5776,8.27759 C-11.6476,8.2146 -11.7106,8.15511 -11.7666,8.09912 L-13.3203,8.58203 L-11.6826,6.65039 L-10.5698,4.31982 C-10.1919,3.68994 -9.67399,3.51497 -9.01611,3.79492 C-8.98812,3.83691 -8.91113,3.9139 -8.78516,4.02588 C-8.65918,4.13786 -8.5297,4.25684 -8.39673,4.38281 C-8.26375,4.50879 -8.14128,4.63127 -8.0293,4.75024 C-7.91732,4.86922 -7.84733,4.92871 -7.81934,4.92871 C-7.81934,4.9847 -7.77035,5.03369 -7.67236,5.07568 C-7.57438,5.11768 -7.36442,5.09668 -7.04248,5.0127 L-5.36279,4.57178 C-5.19482,4.51579 -5.03735,4.53328 -4.89038,4.62427 C-4.74341,4.71525 -4.64193,4.84473 -4.58594,5.0127 C-4.52995,5.26465 -4.60693,5.49561 -4.81689,5.70557 C-4.7889,5.84554 -4.74341,5.99951 -4.68042,6.16748 C-4.61743,6.33545 -4.55794,6.55241 -4.50195,6.81836 L4.40039,4.48779 L4.16943,3.62695 C3.88949,3.59896 3.70752,3.45898 3.62354,3.20703 C3.56755,3.03906 3.59554,2.88159 3.70752,2.73462 C3.8195,2.58765 3.95947,2.48617 4.12744,2.43018 L5.68115,1.98926 C6.00309,1.90527 6.19906,1.80729 6.26904,1.69531 C6.33903,1.58333 6.37402,1.48535 6.37402,1.40137 C6.40202,1.13542 6.44401,0.890462 6.5,0.666504 C6.55599,0.47054 6.60498,0.292074 6.64697,0.131104 C6.68896,-0.0298665 6.73796,-0.138346 6.79395,-0.194336 C6.97591,-0.446289 7.22437,-0.610758 7.53931,-0.687744 C7.85425,-0.76473 8.1377,-0.71224 8.38965,-0.530273 L10.8882,1.08643 C11.1401,1.29639 11.2976,1.55184 11.3606,1.85278 C11.4236,2.15373 11.3781,2.43018 11.2241,2.68213 M-8.34424,3.62695 C-8.73617,3.71094 -9.0966,3.66195 -9.42554,3.47998 C-9.75448,3.29801 -9.99593,3.03206 -10.1499,2.68213 C-10.2339,2.2902 -10.1814,1.91927 -9.99243,1.56934 C-9.80347,1.2194 -9.54102,0.974447 -9.20508,0.834473 C-8.79915,0.694499 -8.43172,0.725993 -8.10278,0.928955 C-7.77384,1.13192 -7.53939,1.42936 -7.39941,1.82129 C-7.24544,2.22721 -7.26294,2.59465 -7.4519,2.92358 C-7.64087,3.25252 -7.93831,3.48698 -8.34424,3.62695 "/>
</g>

<g fill="#53a54f" fill-opacity="1" stroke="none" transform="matrix(1,0,0,1,0,0)"
font-family="MS Shell Dlg 2" font-size="7.8" font-weight="400" font-style="normal" 
>
</g>
</g>
</svg>
